X: 13011
T: Fighting 59th March, The
R: jig
M: 6/8
K: Dmajor
d2 d c2 d|BBA FGA|B2 c d2 c|BBA ABc|
d2 d d2 d|d2 B c2 d|e2 f e2 d|c A2- ABc|
d2 e f2 e|d2 A AGF|GGF G2 A|B3 ABc|
d2 d ccd|B2 A FGA|d2 f e2 c|d3 d2 c||
B2 A FED|F2 F FED|A2 F AAB|A3- Adc|
BBA FED|F2 F FED|EED E2 F|E3- Edc|
BBA FED|F2 F FED|A2 F A2 B|
A3- A2 B|ABc dA<F|E3 D3||

